!!!!SEGMENT: pl-gd--ee-1638--008-019_marenzio-luca--il-quarto-libro-de-madrigalia-a-sei-voci-o-che-ioaue-e-non-inteso-bacio.krn
!!!cenid: 15xx:881
!!!COM: Marenzio, Luca
!!!COM-rismID: pe30003955
!!!CDT: ~1553-1599/08/22
!!!CNT: Italian
!!!GTL: Il Quarto Libro de madrigalia a sei voci
!!!OTL: O che Ioaue e non inteso bacio
!!!OMV: 019
!!!PDT: 1587
!!!AGN:
!!!SMS-siglum: PL-GD
!!!SMS-shelfmark: Ee 1638
!!!SMS-variant:
!!!SMS-altvar:
!!!SMS-shelfwork: 008-019 G
!!!NIFC-rismSourceID: 1001202747
!!!NIFC-rismChildID: 990039254
!!!NIFC-islandoraID: pl-gd:57883
!!!URL-pdf-islandora: https://repozytorium.nifc.pl/islandora/object/pl-gd%3A57883/datastream/PDF/view
!!!URL-scan: https://polish.musicsources.pl/pl/lokalizacje/galeria/klocki-introligatorskie/655 @EN{Scan on Polish Music Sources Website} @PL{Skany w portalu Dziedzictwo Muzyki Polskiej w otwartym dostępie}
!!!ONB-nifc: UWAGA: zbiór na stronach: Canto: s. 706-716, Alto: s. 554-564, Tenore: s. 402-412, Basso: s.250-260, Quinto: s. 98-108, Sesto: s. 16-26. Uwaga: utwory podzielone wg tytułów w spisach treści dostępnych na końcu każdej księgi głosowej.
!!!AIN: 1 alto 1 bass 1 soprn 1 tenor 2 vox
!!!key: d
**kern	**text	**kern	**text	**kern	**text	**kern	**text	**kern	**text	**kern	**text
*part6	*part6	*part5	*part5	*part4	*part4	*part3	*part3	*part2	*part2	*part1	*part1
*staff6	*staff6	*staff5	*staff5	*staff4	*staff4	*staff3	*staff3	*staff2	*staff2	*staff1	*staff1
*I"BASSO	*	*I"TENORE	*	*I"SESTO	*	*I"ALTO	*	*I"QVINTO	*	*I"CANTO	*
*I'B	*	*I'T	*	*I'V II	*	*I'A	*	*I'V I	*	*I'S	*
*ICvox	*	*ICvox	*	*ICvox	*	*ICvox	*	*ICvox	*	*ICvox	*
*Ibass	*	*Itenor	*	*Ivox	*	*Ialto	*	*Ivox	*	*Isoprn	*
*clefF4	*	*clefC4	*	*clefC4	*	*clefC3	*	*clefC2	*	*clefC1	*
*k[b-]	*	*k[b-]	*	*k[b-]	*	*k[b-]	*	*k[b-]	*	*k[b-]	*
*d:	*	*d:	*	*d:	*	*d:	*	*d:	*	*d:	*
*M2/1	*	*M2/1	*	*M2/1	*	*M2/1	*	*M2/1	*	*M2/1	*
*met(C)	*	*met(C)	*	*met(C)	*	*met(C)	*	*met(C)	*	*met(C)	*
=1-	=1-	=1-	=1-	=1-	=1-	=1-	=1-	=1-	=1-	=1-	=1-
*xywh-#259:4807,650,3405,799	*	*xywh-#411:1258,4450,3463,867	*	*xywh-#25:4527,643,3352,739	*	*xywh-#563:4705,576,3363,837	*	*xywh-#107:1128,3954,3379,739	*	*xywh-#715:1317,4518,3388,759	*
!	!	!	!	!LO:TX:b:t=O Che ſoaue.	!	!	!	!LO:TX:t=P:problem: podwójnie zapisany znak przykluczowy, kolejno: B- b-	!	!	!
1D	O	1A	O	00r	.	1d	O	1f	O	1a	O
2.D/	Che	2.A/	Che	.	.	2.d\	Che	2.f\	Che	2.a\	Che
4D/	ſo-	4A/	ſo-	.	.	4d\	ſo-	4f\	ſo-	4a\	ſo-
=2-	=2-	=2-	=2-	=2-	=2-	=2-	=2-	=2-	=2-	=2-	=2-
2AA/	-a-	2A/	-a-	.	.	2c/	-a-	2e/	-a-	2a\	-a-
2D/	ue e	2A/	ue e	.	.	2d\	ve e	2f#X\	ue e	2a\	ue e
4.GG/	non	4.G/	non	.	.	4.d\	non	4.g\	non	4.b-\	non
8GG/	in-	8G/	in-	.	.	8d\	in-	8g\	in-	8b-\	in-
4GG/	-te-	4D/	-te-	.	.	4d\	-te-	4g\	-te-	4b-\	-te-
4BB-/	-ſo	4D/	-ſo	.	.	4d\	-ſo	4d/	-ſo	4g/	-ſo
=3-	=3-	=3-	=3-	=3-	=3-	=3-	=3-	=3-	=3-	=3-	=3-
2AA/	ba-	2A/	ba-	0r	.	2c#X/	ba-	2e/	ba-	2a\	ba-
2AA/	-cio	2E/	-cio	.	.	2c#/	-cio	2e/	-cio	1a	-cio
4D/	Del-	4r	.	.	.	4d\	Del-	4fny\	Del-	.	.
2D/	-la	4A/	Del-	.	.	2d\	-la	2f\	-la	.	.
.	.	4A/	-la	.	.	.	.	.	.	2r	.
4C/	mia	4c\	mia	.	.	4e\	mia	4g\	mia	.	.
=4-	=4-	=4-	=4-	=4-	=4-	=4-	=4-	=4-	=4-	=4-	=4-
4F\	dõ(n)-	4c\	dõ(n)-	1r	.	4f\	dõ(n)-	4a\	dõ(n)-	1r	.
4G\	n(a) heb-	4B-\	-n(a)'heb-	.	.	2d\	-n(a)'heb-	4g\	-na'heb-	.	.
*	*	*	*	*	*	*	*	*custos:g	*	*	*
!	!	!	!	!	!	!	!	!LO:PB:g=original	!	!	!
*	*	*	*	*	*	*	*	*xywh-#107:1128,4521,3345,684	*	*	*
2E-X\	-b'i-	2G/	-b'i-	.	.	.	.	2g\	-b'i-	.	.
.	.	.	.	.	.	4cny/	-b'i-	.	.	.	.
*custos:D	*	*custos:A	*	*	*	*custos:d	*	*	*	*	*
!LO:LB:g=original	!	!LO:PB:g=original	!	!	!	!LO:LB:g=original	!	!	!	!	!
*xywh-#259:4791,1279,3428,736	*	*xywh-#411:4784,595,3409,783	*	*	*	*xywh-#563:4736,1229,3333,652	*	*	*	*	*
2D/	-o	1A	-o	2r	.	1.d	-o	2f#X\	-o	2r	.
2D/	Non	.	.	2A/	Non	.	.	4r	.	2dd\	Non
.	.	.	.	.	.	.	.	4fny\	Non	.	.
=5-	=5-	=5-	=5-	=5-	=5-	=5-	=5-	=5-	=5-	=5-	=5-
4.B-\	sò	2r	.	4.G/	sò	.	.	4g\	sò	4.dd\	sò
.	.	.	.	.	.	.	.	4d/	ſe	.	.
8A\	ſe	.	.	8A/	ſe	.	.	.	.	8cc\	ſe
4G\	don	4r	.	4B-\	don	4r	.	4g\	don	4b-\	don
!	!	!	!	!	!	!	!	!	!	!	!
4F#X\	di	4D/	Non	2d\	di	4A/	Non	4a\	di	4a\	di
*	*	*	*	*	*	*	*	*	*	*custos:g	*
!	!	!	!	!	!	!	!	!	!	!LO:LB:g=original	!
*	*	*	*	*	*	*	*	*	*	*xywh-#715:4760,588,3381,759	*
2G\	lei	4.B-\	sò	.	.	4.d\	sò	2b-\	lei	8g\	lei
.	.	.	.	.	.	.	.	.	.	8a\	.
.	.	.	.	4G/	lei	.	.	.	.	8b-\	.
.	.	8A/	ſe	.	.	8c/	ſe	.	.	8cc\	.
2r	.	4G/	don	4r	.	4B-/	don	4r	.	2dd\	.
.	.	4F#X/	di	4A/	ſe	4d\	di	4a\	ſe	.	.
=6-	=6-	=6-	=6-	=6-	=6-	=6-	=6-	=6-	=6-	=6-	=6-
2r	.	2G/	lei	4B-\	fur-	2d\	lei	4g\	fur-	2r	.
.	.	.	.	4d\	-to	.	.	4f\	-to	.	.
4r	.	2r	.	2c#X\	mi-	2r	.	2e/	mi-	4r	.
4A\	Non	.	.	.	.	.	.	.	.	4a\	Non
4.B-\	sò	1r	.	1d	-o	2r	.	2d/	-o	4f/	sò
.	.	.	.	.	.	.	.	.	.	4f/	ſe
8A\	ſe	.	.	.	.	.	.	.	.	.	.
4G\	don	.	.	.	.	4r	.	4r	.	4b-\	don
4F#X\	di	.	.	.	.	4A/	ſe	4a\	ſe	4dd\	di
=7-	=7-	=7-	=7-	=7-	=7-	=7-	=7-	=7-	=7-	=7-	=7-
2G\	lei	2r	.	0r	.	4B-/	fur-	4g\	fur-	2dd\	lei
.	.	.	.	.	.	4d\	-to	4f\	-to	.	.
2r	.	4r	.	.	.	2c#X/	mi-	2e/	mi-	4r	.
.	.	4A/	ſe	.	.	.	.	.	.	4a\	ſe
1r	.	4B-\	fur-	.	.	2d\	-o	2d/	-o	4g/	fur-
.	.	4d\	-to	.	.	.	.	.	.	4f/	-to
.	.	2c#X\	mi-	.	.	2r	.	2r	.	2e/	mi-
=8-	=8-	=8-	=8-	=8-	=8-	=8-	=8-	=8-	=8-	=8-	=8-
4r	.	2d\	-o	4r	.	4r	.	4r	.	2d/	-o
2D/	E-	.	.	2A/	E-	2d\	E-	2f#X\	E-	.	.
.	.	2r	.	.	.	.	.	.	.	4r	.
!	!	!	!	!	!	!	!	!	!	!	!
4D/	ra vn	.	.	4A/	ra un	4d\	ra un	4f#\	ra un	2dd\	E-
*	*	*	*	*custos:B-	*	*	*	*custos:g	*	*	*
!	!	!	!	!LO:LB:g=original	!	!	!	!LO:LB:g=original	!	!	!
*	*	*	*	*xywh-#25:4521,1230,3331,684	*	*	*	*xywh-#107:4598,602,3345,787	*	*	*
2G\	nò	1r	.	2B-\	nò	2d\	nò	2g\	nò	.	.
.	.	.	.	.	.	.	.	.	.	4dd\	ra vn
4C/	che	.	.	4cny\	che	4e\	che	4g\	che	2cc\	nò
4C/	vo-	.	.	4c\	vo-	4e\	vo-	4g\	vo-	.	.
*custos:F	*	*	*	*	*	*	*	*	*	*	*
!LO:LB:g=original	!	!	!	!	!	!	!	!	!	!	!
=9-	=9-	=9-	=9-	=9-	=9-	=9-	=9-	=9-	=9-	=9-	=9-
*xywh-#259:4853,1845,3304,682	*	*	*	*	*	*	*	*	*	*	*
4.Fny\	-le-	1r	.	4.c\	-le-	4f\	-le-	4a\	-le-	00r	.
.	.	.	.	.	.	4f\	ua un	4a\	ua un	.	.
8Eny\	ua un	.	.	8c\	ua un	.	.	.	.	.	.
4D/	at-	.	.	4d\	at-	4f\	at-	4a\	at-	.	.
!	!	!	!	!	!	!	!	!	!	!	!
4BB-/	-to	.	.	4d\	-to	4f\	-to	4b-\	-to	.	.
*	*	*	*	*	*	*custos:f	*	*	*	*	*
!	!	!	!	!	!	!LO:LB:g=original	!	!	!	!	!
*	*	*	*	*	*	*xywh-#563:4736,1797,3340,660	*	*	*	*	*
2F\	ri-	2r	.	2c\	miſ-	2f\	miſ-	2a\	miſ-	.	.
2C/	-o	4r	.	2c\	-to	2e\	-to	2g\	-to	.	.
.	.	4.cny\	Di	.	.	.	.	.	.	.	.
=10-	=10-	=10-	=10-	=10-	=10-	=10-	=10-	=10-	=10-	=10-	=10-
4.F\	Di	.	.	4.A/	Di	0r	.	4.a\	Di	.	.
.	.	8c\	ra-	.	.	.	.	.	.	.	.
.	.	2d\	-pi-	.	.	.	.	.	.	.	.
8F\	ra-	.	.	8A/	ra-	.	.	8a\	ra-	.	.
!	!	!	!	!LO:N:acc=#	!	!	!	!	!	!	!
2G\	-pi-	.	.	2Bn\	-pi-	.	.	2g\	-pi-	.	.
.	.	2e\	na e	.	.	.	.	.	.	.	.
4.A\	na e	.	.	4.c\	na e	.	.	4e/	-na	.	.
.	.	4f\	d'ac-	.	.	.	.	4a\	d'ac-	.	.
8F\	d'ac-	.	.	8c\	d'ac-	.	.	.	.	.	.
!	!	!	!	!LO:N:acc=#	!	!	!	!	!	!	!
2G\	-quiſ-	2d\	-qui-	2Bn\	-quiſ-	.	.	2g\	-quiſ-	.	.
*	*	*custos:e	*	*	*	*	*	*	*	*	*
!	!	!LO:LB:g=original	!	!	!	!	!	!	!	!	!
=11-	=11-	=11-	=11-	=11-	=11-	=11-	=11-	=11-	=11-	=11-	=11-
*	*	*xywh-#411:4730,1217,3425,698	*	*	*	*	*	*	*	*	*
1C	-to	1e	-ſto	1c	-to	2r	.	1g	-to	2r	.
.	.	.	.	.	.	4e\	Vn	.	.	4g/	Vn
.	.	.	.	.	.	4f\	ne-	.	.	4a\	ne-
*	*	*	*	*	*	*	*	*	*	*custos:b-	*
!	!	!	!	!	!	!	!	!	!	!LO:LB:g=original	!
*	*	*	*	*	*	*	*	*	*	*xywh-#715:4767,1252,3347,664	*
1r	.	1r	.	4G/	Vn	2g\	-gar	1r	.	2b-\	-gar
.	.	.	.	4A/	ne-	.	.	.	.	.	.
.	.	.	.	2B-y\	-gar	4d\	ſi	.	.	4f/	ſì
.	.	.	.	.	.	4e\	gen-	.	.	4g/	gen-
=12-	=12-	=12-	=12-	=12-	=12-	=12-	=12-	=12-	=12-	=12-	=12-
0r	.	1r	.	4A/	ſi	2f\	-ti-	2r	.	2a\	-ti-
.	.	.	.	4B-\	gen-	.	.	.	.	.	.
.	.	.	.	2c\	-ti-	2e\	-le	4g\	Vn	1g	-le
.	.	.	.	.	.	.	.	4a\	ne-	.	.
*	*	*	*	*custos:d	*	*	*	*	*	*	*
!	!	!	!	!LO:LB:g=original	!	!	!	!	!	!	!
*	*	*	*	*xywh-#25:4514,1825,3317,635	*	*	*	*	*	*	*
.	.	4G/	Vn	2d\	-le	1r	.	2b-\	-gar	.	.
.	.	4A/	ne-	.	.	.	.	.	.	.	.
.	.	2B-\	-gar	2r	.	.	.	4fny\	ſi	4d/	ſi
.	.	.	.	.	.	.	.	4g\	gen-	4e/	gen-
*	*	*	*	*	*	*	*	*custos:a	*	*	*
!	!	!	!	!	!	!	!	!LO:LB:g=original	!	!	!
=13-	=13-	=13-	=13-	=13-	=13-	=13-	=13-	=13-	=13-	=13-	=13-
*	*	*	*	*	*	*	*	*xywh-#107:4598,1258,3373,608	*	*	*
1r	.	4A/	ſi	1r	.	1r	.	2a\	-ti-	2f/	-ti-
.	.	4B-\	gen-	.	.	.	.	.	.	.	.
.	.	2c\	-ti-	.	.	.	.	2g\	-le	2e/	-le
2r	.	1Fny	-le	4c\	Che	4f\	Che	4a\	Che	4cc\	Che
.	.	.	.	4c\	bra-	4f\	bra-	4a\	bra-	4cc\	bra-
4F\	Che	.	.	4c\	-ma-	1f\	-ma-	4a\	-ma-	4cc\	-ma-
4F\	bra-	.	.	8c\	-ua	.	.	8a\	-ua	8cc\	-ua
.	.	.	.	8B-\	quel	.	.	8g\	quel	8dd\	quel
=14-	=14-	=14-	=14-	=14-	=14-	=14-	=14-	=14-	=14-	=14-	=14-
2F\	-ma-	1r	.	4c\	che	.	.	4a\	che	4cc\	che
.	.	.	.	4d\	ne-	.	.	4b-\	ne-	4b-\	ne-
2FF/	-ua	.	.	4c\	-gan-	2f\	-ua	4a\	-gan-	4cc\	-gan-
.	.	.	.	4B-\	-do	.	.	4g\	-do	4dd\	-do
*	*	*	*	*	*	*	*ij	*	*	*	*
4F\	Che	4A/	Che	2c\	da-	4f\	Che	2a\	da-	2cc\	da-
4F\	bra-	4A/	bra-	.	.	4f\	bra-	.	.	.	.
*custos:F	*	*	*	*	*	*	*	*	*	*	*
!LO:LB:g=original	!	!	!	!	!	!	!	!	!	!	!
*xywh-#259:4830,2365,3304,690	*	*	*	*	*	*	*	*	*	*	*
4F\	-ma-	4A/	-ma-	2c\	-ua	4f\	-ma-	4a\	-ua	2cc\	-ua
8F\	-ua	8A/	-ua	.	.	8f\	-ua	4r	.	.	.
*	*	*	*	*	*	*	*Xij	*	*	*	*
8E\	quel	8G/	quel	.	.	8g\	quel	.	.	.	.
=15-	=15-	=15-	=15-	=15-	=15-	=15-	=15-	=15-	=15-	=15-	=15-
4F\	che	4A/	che	2r	.	4f\	che	2r	.	2r	.
4G\	ne-	4B-\	ne-	.	.	4d\	ne-	.	.	.	.
4F\	-gan-	4A/	-gan-	4c\	Che	4f\	-gan-	4c/	Che	4cc\	Che
4E\	-do	4G/	-do	4c\	bra-	4g\	-do	4e/	bra-	4cc\	bra-
*	*	*	*	*	*	*	*	*	*	*custos:cc	*
!	!	!	!	!	!	!	!	!	!	!LO:LB:g=original	!
*	*	*	*	*	*	*	*	*	*	*xywh-#715:4760,1786,3368,643	*
0F	da-	4A/	da-	4c\	-ma-	0f	da-	4a\	-ma-	4cc\	-ma-
.	.	4F/	-ua	8c\	-ua	.	.	8a\	-ua	8cc\	-ua
.	.	.	.	8B-\	quel	.	.	8g\	quel	8dd\	quel
*	*	*custos:B-	*	*	*	*	*	*	*	*	*
!	!	!LO:LB:g=original	!	!	!	!	!	!	!	!	!
*	*	*xywh-#411:4745,1747,3456,744	*	*	*	*	*	*	*	*	*
.	.	2r	.	4c\	che	.	.	4a\	che	4cc\	che
.	.	.	.	4d\	ne-	.	.	4b-\	ne-	4b-\	ne-
*	*	*	*	*custos:c	*	*custos:f	*	*custos:a	*	*	*
!	!	!	!	!LO:LB:g=original	!	!LO:LB:g=original	!	!LO:LB:g=original	!	!	!
=16-	=16-	=16-	=16-	=16-	=16-	=16-	=16-	=16-	=16-	=16-	=16-
*	*	*	*	*xywh-#25:4514,2350,3345,642	*	*xywh-#563:4728,2296,3363,691	*	*xywh-#107:4612,1735,3373,739	*	*	*
.	.	0r	.	4c\	-gan-	.	.	4a\	-gan-	4cc\	-gã(n)-
.	.	.	.	4B-\	-do	.	.	2b-\	-do	4dd\	-do
.	.	.	.	2c\	da-	.	.	.	.	2cc\	da-
.	.	.	.	.	.	.	.	4a\	.	.	.
1BB-	-ua	.	.	1B-	-ua	1f	-ua	1b-	ua	1dd	-ua
=17-	=17-	=17-	=17-	=17-	=17-	=17-	=17-	=17-	=17-	=17-	=17-
0r	.	4r	.	4r	.	4r	.	0r	.	4r	.
.	.	2B-\	Vn	2d\	Vn	2f\	Vn	.	.	2b-\	Vn
.	.	4d\	cor-	4d\	cor-	4f\	cor-	.	.	4a\	cor-
.	.	2A/	-te-	2c#X\	-te-	2e\	-te-	.	.	2a\	-te-
.	.	4A/	-ſe	4c#\	-ſe	4e\	-ſe	.	.	4a\	-ſe
.	.	4B-\	vie-	4d\	vie-	4d\	vie-	.	.	4g/	vie-
=18-	=18-	=18-	=18-	=18-	=18-	=18-	=18-	=18-	=18-	=18-	=18-
4r	.	2A/	-tar	2e\	-tar	2c#X/	-tar	4r	.	1a	-tar
4AA/	Che	.	.	.	.	.	.	4e/	che	.	.
4.D/	d'aſ-	4F/	che	4r	.	4d\	che	4.f\	d'aſ-	.	.
.	.	4.A/	d'aſ-	4d\	che	4.f\	d'aſ-	.	.	.	.
8E\	-ſa-	.	.	.	.	.	.	8g\	-ſa-	.	.
1F	-li-	.	.	4.cny\	d'aſ-	.	.	2a\	-li-	4r	.
.	.	8B-\	-ſa-	.	.	8g\	-ſa-	.	.	.	.
.	.	2c\	-li-	.	.	2a\	-li-	.	.	4f/	che
.	.	.	.	8B-\	-ſa-	.	.	.	.	.	.
.	.	.	.	2A/	-li-	.	.	2f\	-re	4.a\	d'aſ-
.	.	4c\	-re	.	.	4f\	-re	.	.	.	.
.	.	.	.	.	.	.	.	.	.	8b-\	-ſa-
=19-	=19-	=19-	=19-	=19-	=19-	=19-	=19-	=19-	=19-	=19-	=19-
1.F	-re	2r	.	1A	-re	1r	.	2f\	Fa-	2cc\	-li-
.	.	2F/	Fa-	.	.	.	.	4f\	-cea	2cc\	-re
.	.	.	.	.	.	.	.	4g\	ſi	.	.
.	.	4F/	-cea	2F/	Fa-	2r	.	4a\	ca-	1cc	Fa-
.	.	4G/	ſi	.	.	.	.	4b-\	ro in-	.	.
2FF/	Fa-	4A/	ca-	4F/	-cea	2a\	Fa-	2cc\	-ui-	.	.
.	.	4B-\	ro in-	4G/	ſi	.	.	.	.	.	.
*	*	*	*	*	*	*	*	*	*	*custos:cc	*
!	!	!	!	!	!	!	!	!	!	!LO:LB:g=original	!
=20-	=20-	=20-	=20-	=20-	=20-	=20-	=20-	=20-	=20-	=20-	=20-
*	*	*	*	*	*	*	*	*	*	*xywh-#715:4767,2320,3388,636	*
4FF/	-cea	2c\	-ui-	4A/	ca-	4a\	-cea	2f\	-to	4cc\	-cea
4GG/	ſi	.	.	4B-\	ro in-	4g\	ſi	.	.	4b-\	ſi
4.AA/	ca-	2F/	-to	1c	-ui-	4f\	ca-	2r	.	4a\	ca-
.	.	.	.	.	.	4f\	ro in-	.	.	4g\	ro in-
8BB-/	ro in-	.	.	.	.	.	.	.	.	.	.
2C/	-ui-	1r	.	.	.	2e\	-ui-	2r	.	2g/	-ui-
2C/	-to	.	.	2G/	-to	2e\	-to	4r	.	2g/	-to
.	.	.	.	.	.	.	.	4.c/	Ch'al	.	.
*custos:F	*	*	*	*custos:c	*	*	*	*	*	*	*
!LO:LB:g=original	!	!	!	!LO:LB:g=original	!	!	!	!	!	!	!
=21-	=21-	=21-	=21-	=21-	=21-	=21-	=21-	=21-	=21-	=21-	=21-
*xywh-#259:4815,2931,3328,636	*	*	*	*xywh-#25:4465,2889,3386,615	*	*	*	*	*	*	*
4.F\	Ch'al	4r	.	4r	.	4f\	Ch'al	.	.	4.a\	Ch'al
.	.	.	.	.	.	.	.	8B-/	ra-	.	.
*	*	*	*	*	*	*	*	*custos:A	*	*	*
!	!	!	!	!	!	!	!	!LO:LB:g=original	!	!	!
*	*	*	*	*	*	*	*	*xywh-#107:4598,2336,3373,635	*	*	*
.	.	4.A/	Ch'al	4.c\	Ch'al	4f\	ra-	2A/	-pir	.	.
8G\	ra-	.	.	.	.	.	.	.	.	8b-\	ra-
2A\	-pir	.	.	.	.	2e\	-pir	.	.	2cc\	-pir
.	.	8B-\	ra-	8B-\	ra-	.	.	.	.	.	.
.	.	4c\	-pir	4A/	-pir	.	.	4.a\	chi	.	.
*	*	*custos:E	*	*	*	*	*	*	*	*	*
!	!	!LO:LB:g=original	!	!	!	!	!	!	!	!	!
*	*	*xywh-#411:4776,2269,3394,721	*	*	*	*	*	*	*	*	*
4.D/	chi	1r	.	4A/	chi	4.a\	chi	.	.	4.f/	chi
.	.	.	.	.	.	.	.	8g\	ra-	.	.
.	.	.	.	4d\	ra-	.	.	2f\	-piſ-	.	.
8E\	ra-	.	.	.	.	8g\	ra-	.	.	8g/	ra-
*	*	*	*	*	*	*custos:f	*	*	*	*	*
!	!	!	!	!	!	!LO:LB:g=original	!	!	!	!	!
*	*	*	*	*	*	*xywh-#563:4759,2842,3348,691	*	*	*	*	*
4F\	-piſ-	.	.	4c\	-piſ-	4f\	-piſ-	.	.	4a\	-piſ-
4.G\	ſe e-	.	.	4B-\	-ſe	4.d\	ſe e-	4.b-\	ſe e-	4.g/	ſe e-
=22-	=22-	=22-	=22-	=22-	=22-	=22-	=22-	=22-	=22-	=22-	=22-
.	.	0r	.	0r	.	.	.	.	.	.	.
8G\	-ra	.	.	.	.	8d\	-ra	8b-\	-ra	8g/	-ra
4B-\	ra-	.	.	.	.	4d\	ra-	4g\	ra-	4d/	ra-
2A\	-pi-	.	.	.	.	2c#X/	-pi-	2a\	-pi-	2e/	-pi-
1D	-to	.	.	.	.	1d	-to	1a	-to	1f#X	-to
=23-	=23-	=23-	=23-	=23-	=23-	=23-	=23-	=23-	=23-	=23-	=23-
!	!	!	!	!	!	!	!	!LO:N:acc=#	!	!	!
4GG/	Vn	1r	.	4G/	Vn	4d\	Vn	4bn\	Vn	4g/	vn
4GG/	reſ-	.	.	4G/	reſ-	4d\	reſ-	4b\	reſ-	4g/	reſ-
1GG	-tar	.	.	1.G	-tar	1d	-tar	1b	-tar	1g	-tar
.	.	2r	.	.	.	.	.	.	.	.	.
4C/	Vn	4E/	Vn	.	.	4r	.	4cc\	Vn	4.g/	e
4C/	reſ-	4E/	reſ-	.	.	4.g\	e	4cc\	reſ-	.	.
.	.	.	.	.	.	.	.	.	.	8fny/	fug-
*	*	*	*	*	*	*	*	*	*	*custos:e	*
!	!	!	!	!	!	!	!	!	!	!LO:LB:g=original	!
=24-	=24-	=24-	=24-	=24-	=24-	=24-	=24-	=24-	=24-	=24-	=24-
*	*	*	*	*	*	*	*	*	*	*xywh-#715:4746,2827,3388,670	*
1C	-tar	2.c\	-tar	4.G/	e	.	.	4cc\	-tar	4e/	-gi-
.	.	.	.	.	.	8f\	fug-	.	.	.	.
.	.	.	.	.	.	4e\	-gi-	4.g\	e	4c/	-re
.	.	.	.	8F/	fug-	.	.	.	.	.	.
.	.	.	.	4E/	-gi-	4cny/	-re	.	.	4.cc\	e
.	.	.	.	.	.	.	.	8f\	fug-	.	.
.	.	4.c\	e	4C/	-re	4r	.	4e/	-gi-	.	.
.	.	.	.	.	.	.	.	.	.	8b-\	fug-
4.F\	e	.	.	1r	.	4.a\	e	2c/	-re	4a\	-gi-
.	.	8B-\	fug-	.	.	.	.	.	.	.	.
.	.	2A/	-gi-	.	.	.	.	.	.	4f/	-re
8E\	fug-	.	.	.	.	8g\	fug-	.	.	.	.
*	*	*	*	*	*	*	*	*custos:f	*	*	*
!	!	!	!	!	!	!	!	!LO:LB:g=original	!	!	!
*	*	*	*	*	*	*	*	*xywh-#107:4591,2855,3407,656	*	*	*
4D/	-gi-	.	.	.	.	4f\	-gi-	4r	.	2r	.
4BB-/	-re	4B-\	-re	.	.	4d\	-re	4.f\	Ch'af-	.	.
*custos:B-	*	*	*	*	*	*	*	*	*	*	*
!LO:LB:g=original	!	!	!	!	!	!	!	!	!	!	!
=25-	=25-	=25-	=25-	=25-	=25-	=25-	=25-	=25-	=25-	=25-	=25-
*xywh-#259:4822,3435,3374,674	*	*	*	*	*	*	*	*	*	*	*
4.B-\	Ch'af-	4.d\	Ch'af-	0r	.	0r	.	.	.	4.b-\	Ch'af-
.	.	.	.	.	.	.	.	8d/	-fret-	.	.
.	.	.	.	.	.	.	.	4g\	-ta-	.	.
8G\	-fret-	8d\	-fret-	.	.	.	.	.	.	8b-\	-fret-
4A\	-ta-	4c\	-ta-	.	.	.	.	4.e/	ua il	4a\	-ta-
8A\	ua il	8c\	ua il	.	.	.	.	.	.	8a\	ua il
8F\	par-	8c\	par-	.	.	.	.	8f\	par-	8a\	par-
!	!	!LO:N:acc=#	!	!	!	!	!	!	!	!	!
1G	-ti-	4Bn\	-ti-	.	.	.	.	1d	-ti-	1g	-ti-
.	.	2c\	.	.	.	.	.	.	.	.	.
!	!	!LO:N:acc=#	!	!	!	!	!	!	!	!	!
.	.	4Bn\	.	.	.	.	.	.	.	.	.
=26-	=26-	=26-	=26-	=26-	=26-	=26-	=26-	=26-	=26-	=26-	=26-
1C	-re	1c	-re	1r	.	1r	.	1e	-re	1g	-re
2r	.	2r	.	2r	.	2r	.	2r	.	2r	.
1FF/	Deh	1c\	Deh	1F/	Deh	1f\	Deh	1a\	Deh	1cc\	Deh
=27-	=27-	=27-	=27-	=27-	=27-	=27-	=27-	=27-	=27-	=27-	=27-
2r	.	2r	.	2F/	ſe	2c/	ſe	4f\	ſe	4a\	ſe
.	.	.	.	.	.	.	.	4g\	queſ-	4b-\	ques-
1r	.	1r	.	1F	queſ-	2f\	queſ-	4a\	-t'è	4cc\	-t'è
.	.	.	.	.	.	.	.	4b-y\	pur	4dd\	pur
.	.	.	.	.	.	1f\	-t'è	4a\	fur-	4cc\	fur-
.	.	.	.	.	.	.	.	4g\	to al-	4b-\	to al-
=28-	=28-	=28-	=28-	=28-	=28-	=28-	=28-	=28-	=28-	=28-	=28-
0r	.	0r	.	2F/	-t'è	.	.	4f\	-cun	4a\	-cũ(n)
.	.	.	.	.	.	.	.	4e/	non	4g/	nõ(n)
*	*	*	*	*	*	*	*	*	*	*custos:f	*
!	!	!	!	!	!	!	!	!	!	!LO:LB:g=original	!
*	*	*	*	*	*	*	*	*	*	*xywh-#715:4781,3388,3354,643	*
.	.	.	.	2F/	pur	2a\	pur	4d/	ſi-	4f/	ſi-
.	.	.	.	.	.	.	.	8d/	-a	8f/	-a
.	.	.	.	.	.	.	.	8c/	Che	8e/	Che
*	*	*	*	*	*	*custos:g	*	*custos:B-	*	*	*
!	!	!	!	!	!	!LO:LB:g=original	!	!LO:LB:g=original	!	!	!
*	*	*	*	*	*	*xywh-#563:4774,3387,3340,691	*	*xywh-#107:4598,3408,3386,628	*	*	*
.	.	.	.	1G	fur-	1g	fur-	4B-/	bra-	4d/	bra-
.	.	.	.	.	.	.	.	4e-yX/	-mi	4c/	-mi
.	.	.	.	.	.	.	.	4d/	cor-	4B-/	cor-
.	.	.	.	.	.	.	.	4c/	-te-	4e-X/	-te-
*	*	*	*	*custos:G	*	*	*	*	*	*	*
!	!	!	!	!LO:LB:g=original	!	!	!	!	!	!	!
=29-	=29-	=29-	=29-	=29-	=29-	=29-	=29-	=29-	=29-	=29-	=29-
*	*	*	*	*xywh-#25:4479,3401,3366,656	*	*	*	*	*	*	*
!	!	!LO:TX:t=P:problem:błędny custos	!	!	!	!	!	!LO:N:acc=#	!	!	!
1r	.	1r	.	1G	-to	1g	-to	2Bn/	-ſi-	2d/	-ſi-
.	.	.	.	.	.	.	.	2B/	-a	2d/	-a
*	*	*custos:A	*	*	*	*	*	*	*	*	*
!	!	!LO:LB:g=original	!	!	!	!	!	!	!	!	!
*	*	*xywh-#411:4768,2830,3356,714	*	*	*	*	*	*	*	*	*
2r	.	2r	.	2r	.	2r	.	2r	.	2r	.
1FF/	Deh	1F/	Deh	1c\	Deh	1f\	Deh	1a\	Deh	1cc\	Deh
=30-	=30-	=30-	=30-	=30-	=30-	=30-	=30-	=30-	=30-	=30-	=30-
4F\	ſe	4c\	ſe	4A/	ſe	2f\	ſe	2r	.	2r	.
4G\	queſ-	4B-y\	queſ-	4B-\	queſ-	.	.	.	.	.	.
4A\	-t'è	4A/	-t'è	4c\	-t'è	2F/	queſ-	1r	.	1r	.
4B-\	pur	4G/	pur	4d\	pur	.	.	.	.	.	.
4A\	fur-	4A/	fur-	4c\	fur-	2F/	-t'è	.	.	.	.
4G\	to al-	4B-\	to al-	4B-\	to al-	.	.	.	.	.	.
=31-	=31-	=31-	=31-	=31-	=31-	=31-	=31-	=31-	=31-	=31-	=31-
4F\	-cũ(n)	4c\	-cũ(n)	4A/	-cun	2f\	pur	2r	.	0r	.
4E\	nõ(n)	4c\	nõ(n)	4G/	non	.	.	.	.	.	.
4D/	ſi-	4B-\	ſi-	4F/	ſi-	2f\	fur-	4r	.	.	.
8D/	-a	8A/	-a	8F/	-a	.	.	4d/	che	.	.
8C/	Che	8A/	Che	8E/	Che	.	.	.	.	.	.
*custos:BB-	*	*	*	*	*	*	*	*	*	*	*
!LO:LB:g=original	!	!	!	!	!	!	!	!	!	!	!
*xywh-#259:4815,3971,3351,705	*	*	*	*	*	*	*	*	*	*	*
4BB-/	bra-	4B-\	bra-	4D/	bra-	2f\	-to	4d/	bra-	.	.
4AA/	-mi	4c\	-mi	4C/	-mi	.	.	4eny/	-mi	.	.
4GG/	cor-	4B-\	cor-	4D/	cor-	2r	.	4g\	cor-	.	.
4FF/	-te-	4A/	-te-	4F/	-te-	.	.	4c/	-te-	.	.
=32-	=32-	=32-	=32-	=32-	=32-	=32-	=32-	=32-	=32-	=32-	=32-
2C/	-ſi-	2G/	-ſi-	2E/	-ſi-	1r	.	1c	-ſi-	1r	.
2C/	-a	2G/	-a	2E/	-a	.	.	.	.	.	.
1F	Fat-	1r	.	1r	.	4f\	Fat-	1c	-a	4a\	Fat-
.	.	.	.	.	.	8f\	-ti	.	.	8a\	-ti
.	.	.	.	.	.	8g\	pur	.	.	8b-\	pur
.	.	.	.	.	.	4a\	la-	.	.	4cc\	ladr'
.	.	.	.	.	.	4f\	-dr'A-	.	.	4a\	A-
=33-	=33-	=33-	=33-	=33-	=33-	=33-	=33-	=33-	=33-	=33-	=33-
2E-X\	-ti	4B-\	Fat-	1r	.	1g	-mor	1r	.	4b-\	-mor
.	.	8B-\	-ti	.	.	.	.	.	.	4g/	che
.	.	8A/	pur	.	.	.	.	.	.	.	.
2E-\	pur	4G/	la-	.	.	.	.	.	.	4b-\	ti
.	.	4G/	-dr'A-	.	.	.	.	.	.	4cc\	per-
*	*	*custos:A	*	*	*	*	*	*	*	*	*
!	!	!LO:LB:g=original	!	!	!	!	!	!	!	!	!
*	*	*xywh-#411:4791,3367,3340,729	*	*	*	*	*	*	*	*	*
2D/	la-	4A/	-mor	4F/	Fat-	1r	.	4d/	Fat-	2dd\	-do-
.	.	4F/	che	8A/	-ti	.	.	8d/	-ti	.	.
.	.	.	.	8G/	pur	.	.	8e/	pur	.	.
*	*	*	*	*custos:F	*	*	*	*	*	*	*
!	!	!	!	!	!	!	!	!	!	!LO:TX:t=P:problem:błędny custos	!
!	!	!	!	!LO:LB:g=original	!	!	!	!	!	!	!
*	*	*	*	*xywh-#25:4458,3947,3373,677	*	*	*	*	*	*	*
2D/	dro A-	4A/	ti	4F/	la-	.	.	4f\	la-	2a\	-no
.	.	4B-\	per-	4F/	-dr'A-	.	.	4d/	-dr'A-	.	.
*	*	*	*	*	*	*	*	*custos:e	*	*	*
!	!	!	!	!	!	!	!	!LO:LB:g=original	!	!	!
=34-	=34-	=34-	=34-	=34-	=34-	=34-	=34-	=34-	=34-	=34-	=34-
*	*	*	*	*	*	*	*	*xywh-#107:4584,3926,3414,649	*	*	*
2C/	-mor	4c\	-do-	4G/	-mor	1r	.	4e/	-mor	1r	.
.	.	4G/	-no	4E/	che	.	.	4c/	che	.	.
2C/	che	2r	.	4G/	ti	.	.	4e/	ti	.	.
.	.	.	.	4A/	per-	.	.	4f\	per-	.	.
*	*	*	*	*	*	*	*	*	*	*custos:e	*
!	!	!	!	!	!	!	!	!	!	!LO:LB:g=original	!
*	*	*	*	*	*	*	*	*	*	*xywh-#715:4788,3922,3347,670	*
2BB-/	ti	1r	.	2B-\	-do-	4d\	Fat-	2g\	-do-	4b-\	Fat-
.	.	.	.	.	.	8d\	-ti	.	.	8b-\	-ti
.	.	.	.	.	.	8e\	pur	.	.	8cc\	pur
2BB-/	per-	.	.	2F/	-no	4f\	la-	2d/	-no	4dd\	ladr'
.	.	.	.	.	.	4d\	-dr'a-	.	.	4b-\	a-
=35-	=35-	=35-	=35-	=35-	=35-	=35-	=35-	=35-	=35-	=35-	=35-
1AA	-do-	4A/	Fat-	00r	.	4e\	-mor	1r	.	8cc\	-mor
.	.	.	.	.	.	.	.	.	.	8b-\	.
.	.	8A/	-ti	.	.	4c/	che	.	.	8a\	.
.	.	8B-\	pur	.	.	.	.	.	.	8g\	.
*	*	*	*	*	*	*custos:e	*	*	*	*	*
!	!	!	!	!	!	!LO:LB:g=original	!	!	!	!	!
*	*	*	*	*	*	*xywh-#563:4774,3940,3348,675	*	*	*	*	*
.	.	4c\	la-	.	.	4e\	ti	.	.	2a\	.
.	.	4A/	-dr'a-	.	.	4f\	per-	.	.	.	.
1GG	-no	4B-\	-mor	.	.	2g\	-do-	4r	.	1r	.
.	.	4G/	che	.	.	.	.	4B-y/	che	.	.
.	.	4B-\	ti	.	.	2G/	-no	4d/	ti	.	.
.	.	4c\	per-	.	.	.	.	4e/	per-	.	.
=36-	=36-	=36-	=36-	=36-	=36-	=36-	=36-	=36-	=36-	=36-	=36-
0r	.	1d	-do-	.	.	4r	.	8f\	-do-	4r	.
.	.	.	.	.	.	.	.	8g\	.	.	.
.	.	.	.	.	.	4d\	che	2a\	.	4f/	che
.	.	.	.	.	.	4f\	ti	.	.	4a\	ti
.	.	.	.	.	.	4g\	per-	8g\	.	4b-\	per-
.	.	.	.	.	.	.	.	8f\	.	.	.
.	.	1c	-no	.	.	4.a\	-do-	4e/	.	1cc	-do-
.	.	.	.	.	.	.	.	2f\	.	.	.
.	.	.	.	.	.	16g\	.	.	.	.	.
.	.	.	.	.	.	16f\	.	.	.	.	.
.	.	.	.	.	.	2g\	.	.	.	.	.
.	.	.	.	.	.	.	.	4e/	.	.	.
=37-	=37-	=37-	=37-	=37-	=37-	=37-	=37-	=37-	=37-	=37-	=37-
2r	.	4r	.	4r	.	1a	-no	0f	-no	1cc	-no
.	.	4A/	E	4F/	E	.	.	.	.	.	.
*	*	*custos:c	*	*	*	*	*	*	*	*	*
!	!	!LO:LB:g=original	!	!	!	!	!	!	!	!	!
*	*	*xywh-#411:4776,3905,3379,698	*	*	*	*	*	*	*	*	*
2F\	E	4c\	ce-	4A/	ce-	.	.	.	.	.	.
.	.	4c\	da in	4A/	da in	.	.	.	.	.	.
2D/	ce-	2d\	tut-	2B-\	tut-	1r	.	.	.	4r	.
.	.	.	.	.	.	.	.	.	.	4f/	E
2F\	da in	2c\	-to	2A/	to al-	.	.	.	.	4a\	ce-
.	.	.	.	.	.	.	.	.	.	4a\	-da~in
=38-	=38-	=38-	=38-	=38-	=38-	=38-	=38-	=38-	=38-	=38-	=38-
2BB-/	tut-	4r	.	4d\	-la	2f\	al-	1r	.	2b-\	tut-
.	.	4F/	E	4d\	ra-	.	.	.	.	.	.
2F\	-to	4A/	ce-	2c\	-pi-	4f\	-la	.	.	2a\	-to
.	.	4A/	da in	.	.	4f\	ra-	.	.	.	.
*custos:D	*	*	*	*	*	*	*	*	*	*	*
!LO:LB:g=original	!	!	!	!	!	!	!	!	!	!	!
*xywh-#259:4791,4498,3390,705	*	*	*	*	*	*	*	*	*	*	*
4r	.	2B-\	tut-	4f\	na il	4.d\	-pi-	4r	.	1r	.
4D/	al-	.	.	4.d\	do-	.	.	4f\	E	.	.
.	.	.	.	.	.	8e\	na il	.	.	.	.
4D/	-la	2A/	-to	.	.	2f\	do-	4a\	ce-	.	.
.	.	.	.	16c\	.	.	.	.	.	.	.
.	.	.	.	16B-\	.	.	.	.	.	.	.
4D/	ra-	.	.	4.A/	.	.	.	4a\	da in	.	.
=39-	=39-	=39-	=39-	=39-	=39-	=39-	=39-	=39-	=39-	=39-	=39-
4.BB-/	-pi-	1r	.	.	.	0d	-no	2b-\	tut-	4r	.
.	.	.	.	8G/	.	.	.	.	.	.	.
.	.	.	.	2G/	.	.	.	.	.	4dd\	al-
8C/	na il	.	.	.	.	.	.	.	.	.	.
2D/	do-	.	.	.	.	.	.	2a\	-to	4dd\	-la
.	.	.	.	4F#X/	.	.	.	.	.	4dd\	ra-
*	*	*	*	*custos:G	*	*	*	*custos:g	*	*	*
!	!	!	!	!LO:LB:g=original	!	!	!	!LO:LB:g=original	!	!	!
*	*	*	*	*xywh-#25:4445,4500,3407,691	*	*	*	*xywh-#107:4612,4445,3435,711	*	*	*
1GG	-no	4r	.	1G	-no	.	.	4r	.	4.b-\	-pi-
*	*	*	*ij	*	*	*	*	*	*	*	*
.	.	4G/	E	.	.	.	.	4g\	al-	.	.
.	.	.	.	.	.	.	.	.	.	8cc\	na il
!	!	!LO:N:acc=#	!	!	!	!	!	!	!	!	!
.	.	4Bn\	ce-	.	.	.	.	4g\	-la	2dd\	do-
.	.	4B\	da in	.	.	.	.	4g\	ra-	.	.
*	*	*	*	*	*	*	*	*	*	*custos:g	*
!	!	!	!	!	!	!	!	!	!	!LO:LB:g=original	!
=40-	=40-	=40-	=40-	=40-	=40-	=40-	=40-	=40-	=40-	=40-	=40-
*	*	*	*	*	*	*	*	*	*	*xywh-#715:4753,4470,3470,657	*
4r	.	2c\	tut-	4r	.	4r	.	4.e/	-pi-	1g	-no
*	*ij	*	*	*	*	*	*	*	*	*	*ij
4C/	al-	.	.	4G/	E	4c/	E	.	.	.	.
.	.	.	.	.	.	.	.	8f\	na il	.	.
4C/	-la	2G/	-to	4c\	ce-	4e\	ce-	2g\	do-	.	.
4C/	ra-	.	.	4G/	da in	2e\	da in	.	.	.	.
4.AA/	-pi-	2r	.	2A/	tut-	.	.	0c	-no	4r	.
.	.	.	.	.	.	2f\	tut-	.	.	4cc\	al-
8BB-/	na il	.	.	.	.	.	.	.	.	.	.
2C/	do-	4r	.	2G/	-to	.	.	.	.	4cc\	-la
*	*	*	*Xij	*	*	*	*	*	*	*	*
.	.	4c\	al-	.	.	4e\	-to	.	.	4cc\	ra-
*	*	*	*	*	*	*custos:a	*	*	*	*	*
!	!	!	!	!	!	!LO:LB:g=original	!	!	!	!	!
=41-	=41-	=41-	=41-	=41-	=41-	=41-	=41-	=41-	=41-	=41-	=41-
*	*	*	*	*	*	*xywh-#563:4744,4454,3386,691	*	*	*	*	*
4FF/	-no	4f\	-la	0r	.	4r	.	.	.	4.a\	-pi-
*	*Xij	*	*	*	*	*	*	*	*	*	*
4F\	E	4f\	ra-	.	.	4a\	al-	.	.	.	.
.	.	.	.	.	.	.	.	.	.	8b-\	na il
4A\	ce-	4e\	-pi-	.	.	4a\	-la	.	.	2cc\	do-
4A\	da in	4f\	na il	.	.	4a\	ra-	.	.	.	.
*	*	*custos:d	*	*	*ij	*	*	*	*	*	*
!	!	!LO:LB:g=original	!	!	!	!	!	!	!	!	!
*	*	*xywh-#411:4791,4450,3325,729	*	*	*	*	*	*	*	*	*
2B-\	tut-	2d\	do-	.	.	4.f\	-pi-	4r	.	2b-\	-no
.	.	.	.	.	.	.	.	4d/	E	.	.
.	.	.	.	.	.	8g\	na il	.	.	.	.
2A\	-to	2c\	-no	.	.	2a\	do-	4e/	ce-	4r	.
*	*	*	*	*	*	*	*	*	*	*	*Xij
.	.	.	.	.	.	.	.	4f\	da in	4cc\	al-
=42-	=42-	=42-	=42-	=42-	=42-	=42-	=42-	=42-	=42-	=42-	=42-
1r	.	4r	.	2c\	E	4g\	-no	2e/	tut-	4cc\	-la
*	*	*	*	*	*	*	*ij	*	*	*	*
.	.	4A/	al-	.	.	4c/	al-	.	.	4cc\	ra-
.	.	4A/	-la	4e\	ce-	4c/	-la	2cc\	-to	4.a\	-pi-
.	.	4A/	ra-	4f\	da in	4c/	ra-	.	.	.	.
.	.	.	.	.	.	.	.	.	.	8b-\	na il
2r	.	4.F/	-pi-	2f\	tut-	4.A/	-pi-	2r	.	1cc	do-
.	.	8G/	na il	.	.	8B-/	na il	.	.	.	.
4r	.	2A/	do-	2e\	to	2c/	do-	4r	.	.	.
*	*	*	*	*	*	*	*	*	*ij	*	*
4AA/	al-	.	.	.	.	.	.	4c/	E	.	.
*	*	*	*	*	*Xij	*	*	*	*	*	*
=43-	=43-	=43-	=43-	=43-	=43-	=43-	=43-	=43-	=43-	=43-	=43-
4AA/	-la	4E/	-no	4c\	alla	1A	-no	4e/	ce-	2cc\	-no
4AA/	ra-	4c\	al-	4c\	ra-	.	.	4e/	da in	.	.
4.FF/	-pi-	4c\	-la	4.A/	-pi-	.	.	2f\	tut-	4r	.
.	.	4c\	ra-	.	.	.	.	.	.	4cc\	al-
8GG/	na il	.	.	8B-\	na il	.	.	.	.	.	.
0.AA	do-	4.A/	-pi-	2c\	do-	4r	.	4e/	to	4cc\	-la
*	*	*	*	*	*	*	*Xij	*	*Xij	*	*
.	.	.	.	.	.	4e\	al-	2a\	alla	4cc\	ra-
.	.	8B-y\	na il	.	.	.	.	.	.	.	.
.	.	4.c\	do-	4C/	-no	4e\	-la	.	.	4.a\	-pi-
.	.	.	.	4E/	al-	4e\	ra-	2A/	ra-	.	.
.	.	8B-\	.	.	.	.	.	.	.	8b-\	na il
=44-	=44-	=44-	=44-	=44-	=44-	=44-	=44-	=44-	=44-	=44-	=44-
.	.	0A	.	4E/	-la	4.c/	-pi-	.	.	8cc\	do-
.	.	.	.	.	.	.	.	.	.	8b-\	.
.	.	.	.	4E/	ra-	.	.	2e/	-pi-	8a\	.
.	.	.	.	.	.	8d\	na il	.	.	8g\	.
.	.	.	.	4C#X/	-pi-	4e\	do-	.	.	1.a	.
.	.	.	.	4D/	na il	2d\	.	4f\	na il	.	.
.	.	.	.	1E	do-	.	.	1e	do-	.	.
.	.	.	.	.	.	8c#X/	.	.	.	.	.
!	!	!	!	!	!	!LO:N:acc=#	!	!	!	!	!
.	.	.	.	.	.	8Bn/	.	.	.	.	.
.	.	.	.	.	.	2c#X/	.	.	.	.	.
=45-	=45-	=45-	=45-	=45-	=45-	=45-	=45-	=45-	=45-	=45-	=45-
00D	-no.	00A	-no.	00D	-no.	00d	-no.	00f#X	-no.	00a	-no.
==	==	==	==	==	==	==	==	==	==	==	==
*-	*-	*-	*-	*-	*-	*-	*-	*-	*-	*-	*-
!!!system-decoration: [(s1,s2,s3,s4,s5,s6)]
!!!ENC: Mateusz Solarz
!!!END: 2022-06-16
!!!ENC: Jan Barakat
!!!END: 2022-07-26
!!!YEC: Copyright 2022 Narodowy Instytut Fryderyka Chopina (https://polishscores.org)
!!!YEM: License CC-BY-4.0 (https://creativecommons.org/licenses/by/4.0)
!!!IIIF: https://repozytorium.nifc.pl/islandora/object/pl-gd%3A57883/datastream/IIIF/view
!!!ENC-iiif: Jolanta Bujas-Poniatowska
!!!END-iiif: 2022-09-23
